svgs/solid/high-definition.svg

<svg xmlns="http://www.w3.org/2000/svg" viewBox="0 0 576 512"><!--! Font Awesome Pro 6.6.0 by @fontawesome - https://fontawesome.com License - https://fontawesome.com/license (Commercial License) Copyright 2024 Fonticons, Inc. --><path d="M0 96C0 60.7 28.7 32 64 32l448 0c35.3 0 64 28.7 64 64l0 320c0 35.3-28.7 64-64 64L64 480c-35.3 0-64-28.7-64-64L0 96zm304 88l0 144c0 13.3 10.7 24 24 24l56 0c53 0 96-43 96-96s-43-96-96-96l-56 0c-13.3 0-24 10.7-24 24zm80 24c26.5 0 48 21.5 48 48s-21.5 48-48 48l-32 0 0-96 32 0zM160 184c0-13.3-10.7-24-24-24s-24 10.7-24 24l0 72 0 72c0 13.3 10.7 24 24 24s24-10.7 24-24l0-48 64 0 0 48c0 13.3 10.7 24 24 24s24-10.7 24-24l0-72 0-72c0-13.3-10.7-24-24-24s-24 10.7-24 24l0 48-64 0 0-48z"/></svg>

<svg xmlns="http://www.w3.org/2000/svg" viewBox="0 0 576 512"><!--! Font Awesome Pro 6.4.2 by @fontawesome - https://fontawesome.com License - https://fontawesome.com/license (Commercial License) Copyright 2023 Fonticons, Inc. --><path d="M0 96C0 60.7 28.7 32 64 32H512c35.3 0 64 28.7 64 64V416c0 35.3-28.7 64-64 64H64c-35.3 0-64-28.7-64-64V96zm304 88V328c0 13.3 10.7 24 24 24h56c53 0 96-43 96-96s-43-96-96-96H328c-13.3 0-24 10.7-24 24zm80 24c26.5 0 48 21.5 48 48s-21.5 48-48 48H352V208h32zM160 184c0-13.3-10.7-24-24-24s-24 10.7-24 24v72 72c0 13.3 10.7 24 24 24s24-10.7 24-24V280h64v48c0 13.3 10.7 24 24 24s24-10.7 24-24V256 184c0-13.3-10.7-24-24-24s-24 10.7-24 24v48H160V184z"/></svg>
